tools/download-figma-icons/icons/outlined-large/augmented-reality.svg

<svg width="64" height="64" viewBox="0 0 64 64" fill="none" xmlns="http://www.w3.org/2000/svg">
<path fill-rule="evenodd" clip-rule="evenodd" d="M39.5859 8.93351L33.0749 5.16451C33.0671 5.16039 33.0589 5.15759 33.0505 5.15476C33.0426 5.15209 33.0346 5.14939 33.0269 5.14551C32.9669 5.11351 32.9059 5.08751 32.8399 5.06751C32.7889 5.05151 32.7359 5.04351 32.6839 5.03651C32.6602 5.03264 32.6375 5.02621 32.6148 5.01979C32.5789 5.00964 32.5431 4.99951 32.5039 4.99951C32.4571 4.99951 32.414 5.01142 32.3707 5.02339L32.3707 5.02339L32.3707 5.02339C32.3464 5.03011 32.322 5.03684 32.2969 5.04151C32.2849 5.04412 32.2729 5.04631 32.2609 5.04849L32.2608 5.0485C32.2406 5.05218 32.2203 5.05586 32.2009 5.06151C32.1139 5.08651 32.0339 5.11951 31.9569 5.16251C31.9563 5.16307 31.9554 5.16332 31.9544 5.1636C31.9536 5.16383 31.9527 5.16407 31.9519 5.16451L25.4099 8.91751C24.8719 9.22851 24.6869 9.91651 24.9969 10.4545C25.3069 10.9945 25.9939 11.1785 26.5329 10.8695L31.3829 8.06851V14.3405C31.3829 14.9605 31.8859 15.4635 32.5059 15.4635C33.1259 15.4635 33.6289 14.9605 33.6289 14.3405V8.07151L38.4549 10.8695C38.6259 10.9665 38.8199 11.0175 39.0169 11.0165L39.0239 11.0325C39.4289 11.0345 39.8029 10.8185 40.0029 10.4665C40.3109 9.92751 40.1239 9.24251 39.5859 8.93351ZM55.9922 37.3876C55.9922 36.7676 55.4892 36.2646 54.8692 36.2646C54.2492 36.2646 53.7462 36.7676 53.7462 37.3876V42.9896L48.8962 40.1896C48.3572 39.8786 47.6702 40.0646 47.3602 40.6026C47.0502 41.1416 47.2352 41.8286 47.7732 42.1396L52.6132 44.9346L47.7732 47.7256C47.4232 47.9266 47.2072 48.3006 47.2082 48.7046C47.2102 49.3256 47.7152 49.8266 48.3352 49.8246C48.5312 49.8256 48.7252 49.7746 48.8962 49.6766L55.2752 45.9976C55.3136 45.9829 55.3472 45.9609 55.381 45.9388L55.3811 45.9386L55.4011 45.9257C55.409 45.9205 55.417 45.9155 55.4252 45.9106L55.4302 45.9086L55.4309 45.9076C55.4314 45.9069 55.4318 45.9063 55.4332 45.9056C55.5542 45.8336 55.6562 45.7436 55.7422 45.6336C55.7532 45.6202 55.7622 45.6058 55.7714 45.5912L55.7715 45.5911L55.7803 45.5771C55.7841 45.5712 55.788 45.5654 55.7922 45.5596L55.7963 45.5533L55.8062 45.5388L55.8063 45.5387C55.813 45.5289 55.8197 45.5191 55.8262 45.5086C55.8284 45.5047 55.8313 45.5014 55.8341 45.4981L55.8341 45.4981L55.8348 45.4973C55.8367 45.4951 55.8386 45.4929 55.8402 45.4906C55.8407 45.4901 55.841 45.4892 55.8413 45.4882C55.8415 45.4874 55.8417 45.4865 55.8422 45.4856C55.8772 45.4216 55.9032 45.3576 55.9262 45.2856C55.9432 45.2316 55.9532 45.1776 55.9632 45.1196L55.9676 45.0933C55.9714 45.0718 55.975 45.0507 55.9772 45.0286C55.9781 45.0166 55.9814 45.0056 55.9846 44.9948L55.9846 44.9947C55.9884 44.9821 55.9922 44.9696 55.9922 44.9556V37.3876ZM33.6288 55.9743L38.4238 53.1953C39.0058 52.9803 39.6518 53.2793 39.8648 53.8613C40.0278 54.2993 39.9008 54.7933 39.5468 55.0983L33.0748 58.8513C33.051 58.8656 33.025 58.8747 32.9992 58.8838C32.9869 58.8882 32.9747 58.8925 32.9628 58.8973C32.9482 58.9042 32.9351 58.9095 32.921 58.9153L32.9207 58.9155L32.9206 58.9155L32.9138 58.9183C32.7848 58.9663 32.6528 59.0013 32.5138 59.0003H32.5058C32.3698 59.0003 32.2388 58.9673 32.1118 58.9213C32.0858 58.9103 32.0608 58.9003 32.0348 58.8883C32.0237 58.8835 32.0123 58.8795 32.0009 58.8755C31.9816 58.8688 31.9624 58.862 31.9448 58.8513L25.3948 55.0983C24.8568 54.7893 24.6708 54.1003 24.9818 53.5613C25.2908 53.0233 25.9788 52.8383 26.5178 53.1483L31.3828 55.9663V50.3473C31.3818 49.7263 31.8838 49.2233 32.5038 49.2223C33.1238 49.2213 33.6278 49.7233 33.6288 50.3443V50.3473V55.9743ZM38.4551 27.2373L32.5061 30.6863L26.5331 27.2373C25.9941 26.9273 25.3071 27.1123 24.9971 27.6513C24.6861 28.1893 24.8721 28.8783 25.4101 29.1883L31.3831 32.6393V39.4953V39.5343C31.3831 40.1553 31.8861 40.6573 32.5061 40.6573V40.6183C33.1261 40.6183 33.6291 40.1153 33.6291 39.4953V32.6313L39.5781 29.1803C40.0621 28.8673 40.2301 28.2373 39.9671 27.7233C39.6841 27.1723 39.0071 26.9543 38.4551 27.2373ZM48.3428 23.9451C47.7228 23.9471 47.2178 23.4461 47.2158 22.8251C47.2148 22.4211 47.4308 22.0471 47.7808 21.8461L52.6198 19.0491L47.7738 16.2441C47.2358 15.9341 47.0498 15.2461 47.3608 14.7071C47.6698 14.1691 48.3578 13.9831 48.8968 14.2941L55.4228 18.0701C55.439 18.0796 55.4515 18.0926 55.4639 18.1056L55.464 18.1056C55.4737 18.1157 55.4833 18.1258 55.4948 18.1341C55.5258 18.1541 55.5518 18.1761 55.5788 18.1991L55.5924 18.211C55.6274 18.2415 55.6609 18.2707 55.6928 18.3061C55.7348 18.3531 55.7698 18.4001 55.8028 18.4531C55.8073 18.4606 55.8133 18.4664 55.8193 18.4721C55.8253 18.4779 55.8313 18.4836 55.8358 18.4911C55.8411 18.5007 55.8436 18.5106 55.8461 18.5206L55.8461 18.5206C55.8483 18.5294 55.8506 18.5382 55.8548 18.5471C55.8748 18.5861 55.8928 18.6251 55.9078 18.6671C55.9298 18.7271 55.9448 18.7871 55.9558 18.8491C55.9648 18.8961 55.9698 18.9411 55.9728 18.9881C55.9732 18.9983 55.9761 19.0073 55.9789 19.0162C55.9818 19.0256 55.9848 19.0348 55.9848 19.0451V26.5821C55.9848 27.2031 55.4818 27.7061 54.8618 27.7061C54.2408 27.7061 53.7378 27.2031 53.7378 26.5821V21.0021L48.9038 23.7971C48.7338 23.8941 48.5388 23.9451 48.3428 23.9451ZM17.2148 21.8076L12.3848 19.0186L17.2068 16.2596C17.7448 15.9506 17.9308 15.2616 17.6198 14.7226C17.3108 14.1846 16.6228 13.9986 16.0838 14.3096L9.69176 17.9966C9.55576 18.0556 9.43676 18.1396 9.32976 18.2496C9.32876 18.2506 9.32801 18.2516 9.32726 18.2526L9.32726 18.2526C9.32651 18.2536 9.32576 18.2546 9.32476 18.2556C9.30755 18.2743 9.28949 18.292 9.27142 18.3097L9.27142 18.3098C9.22754 18.3528 9.18363 18.3959 9.15176 18.4526C9.13868 18.4765 9.13239 18.5013 9.12609 18.5263C9.12131 18.5451 9.11652 18.5641 9.10876 18.5826C9.10092 18.6 9.0946 18.6167 9.08782 18.6345L9.08476 18.6426C9.06276 18.6996 9.04276 18.7556 9.02976 18.8166L9.02828 18.8266C9.02279 18.864 9.01751 18.9 9.01476 18.9376C9.01321 18.9519 9.01061 18.9661 9.00801 18.9803C9.00389 19.0028 8.99976 19.0253 8.99976 19.0486C8.99976 19.0527 9.00082 19.0561 9.00186 19.0593L9.00186 19.0593C9.00282 19.0623 9.00376 19.0652 9.00376 19.0686V26.5816C9.00376 27.2036 9.50676 27.7056 10.1268 27.7056C10.7468 27.7056 11.2498 27.2036 11.2498 26.5816V20.9726L16.0838 23.7966C16.2548 23.8946 16.4488 23.9456 16.6458 23.9456L16.6528 23.9066C17.0578 23.9076 17.4318 23.6916 17.6318 23.3396C17.9398 22.8016 17.7528 22.1156 17.2148 21.8076ZM12.363 44.9303L17.207 47.7333C17.745 48.0423 17.933 48.7283 17.624 49.2663C17.424 49.6183 17.05 49.8343 16.645 49.8323C16.449 49.8333 16.255 49.7823 16.084 49.6843L9.55796 45.9083C9.5267 45.8905 9.50296 45.866 9.47913 45.8414C9.46408 45.8258 9.44899 45.8102 9.43196 45.7963C9.4238 45.7897 9.41567 45.7832 9.4076 45.7767C9.36818 45.7451 9.33016 45.7147 9.29696 45.6773C9.23396 45.6093 9.18796 45.5363 9.14596 45.4563L9.14066 45.4466C9.11758 45.4042 9.09561 45.3638 9.07796 45.3183C9.04396 45.2243 9.02796 45.1293 9.01896 45.0293C9.018 45.0174 9.01476 45.0061 9.01153 44.9949C9.008 44.9826 9.00448 44.9704 9.00396 44.9573V44.9563C9.00396 44.9528 9.00296 44.9496 9.00196 44.9463C9.00096 44.9431 8.99996 44.9398 8.99996 44.9363C8.99996 44.9314 9.00091 44.9268 9.00188 44.922C9.00291 44.917 9.00396 44.9119 9.00396 44.9063V44.8163C9.00446 44.8118 9.0042 44.8072 9.00395 44.8028C9.0037 44.7985 9.00346 44.7943 9.00396 44.7903V37.3873C9.00296 36.7673 9.50496 36.2633 10.125 36.2623C10.745 36.2613 11.249 36.7643 11.25 37.3843V37.3873V42.9803L16.076 40.1813C16.615 39.8713 17.303 40.0563 17.612 40.5943C17.923 41.1333 17.737 41.8213 17.199 42.1313L12.363 44.9303Z" fill="black"/>
<path opacity="0.196661" fill-rule="evenodd" clip-rule="evenodd" d="M33.1453 33.1043L53.5883 44.9353L33.1453 56.7873V33.1043ZM31.8663 33.0903V56.7783L11.4043 44.9323L31.8663 33.0903ZM31.8663 30.8843L11.4053 19.0453L31.8663 7.22933V30.8843ZM33.1453 30.8733V7.23333L53.5833 19.0453L33.1453 30.8733ZM54.2293 43.8243L33.7733 31.9883L54.2293 20.1493V43.8243ZM10.7823 20.1633L31.2163 31.9893L10.7823 43.8143V20.1633ZM55.4803 18.9033C55.4783 18.8953 55.4773 18.8873 55.4753 18.8803C55.4213 18.6833 55.2863 18.5233 55.0973 18.4513L32.8253 5.57133C32.8143 5.56433 32.8003 5.56533 32.7893 5.55933C32.7673 5.54833 32.7463 5.53833 32.7233 5.52933C32.6863 5.51533 32.6493 5.50833 32.6103 5.50133C32.5933 5.49933 32.5783 5.49833 32.5613 5.49733C32.5413 5.49533 32.5253 5.48633 32.5053 5.48633C32.4983 5.48633 32.4913 5.49033 32.4823 5.49033C32.4393 5.49233 32.3983 5.50133 32.3543 5.51133C32.3503 5.51333 32.3463 5.51433 32.3423 5.51533C32.3343 5.51833 32.3273 5.52133 32.3193 5.52333C32.2913 5.53233 32.2633 5.53733 32.2373 5.54933C32.2223 5.55533 32.2083 5.55533 32.1933 5.56333L9.80728 18.4913C9.79028 18.5003 9.78328 18.5203 9.76728 18.5313C9.75228 18.5413 9.74228 18.5553 9.72828 18.5673C9.70128 18.5893 9.67928 18.6143 9.65728 18.6413C9.61628 18.6893 9.58028 18.7353 9.55428 18.7923C9.55228 18.7993 9.55128 18.8073 9.54928 18.8143C9.54128 18.8353 9.53828 18.8583 9.53128 18.8803C9.52228 18.9153 9.50728 18.9473 9.50328 18.9823C9.50128 19.0043 9.48828 19.0223 9.48828 19.0443C9.48828 19.0723 9.49928 19.0953 9.50228 19.1213V44.8753C9.50028 44.8953 9.48828 44.9123 9.48828 44.9323C9.48828 44.9803 9.50428 45.0213 9.51428 45.0663C9.51728 45.0803 9.51928 45.0933 9.52328 45.1083C9.54128 45.1683 9.56728 45.2233 9.60128 45.2753C9.61428 45.2953 9.62528 45.3153 9.64028 45.3343C9.67428 45.3753 9.71228 45.4083 9.75528 45.4393C9.77428 45.4543 9.78628 45.4743 9.80728 45.4863L32.1863 58.4463C32.1993 58.4543 32.2153 58.4513 32.2293 58.4583C32.3063 58.4973 32.3903 58.5203 32.4823 58.5253C32.4903 58.5253 32.4983 58.5323 32.5053 58.5323H32.5133C32.6273 58.5323 32.7373 58.5003 32.8333 58.4463L55.0703 45.5553C55.2913 45.4803 55.4483 45.2923 55.4883 45.0593C55.4923 45.0353 55.4993 45.0123 55.5013 44.9883C55.5023 44.9773 55.5083 44.9673 55.5083 44.9563V19.0443V19.0433C55.5083 18.9943 55.4903 18.9503 55.4803 18.9033Z" fill="black"/>
</svg>

<svg width="64" height="64" viewBox="0 0 64 64" fill="none" xmlns="http://www.w3.org/2000/svg"><path fill-rule="evenodd" clip-rule="evenodd" d="m39.586 8.934-6.511-3.77a.162.162 0 0 0-.025-.01l-.023-.008a.936.936 0 0 0-.343-.109.55.55 0 0 1-.07-.017c-.035-.01-.07-.02-.11-.02a.495.495 0 0 0-.133.023.883.883 0 0 1-.11.025c-.02.004-.04.008-.06.014a1.14 1.14 0 0 0-.244.1l-.003.002h-.002L25.41 8.919a1.126 1.126 0 0 0 1.123 1.952l4.85-2.801v6.271a1.123 1.123 0 0 0 2.246 0V8.073l4.826 2.798c.17.097.365.148.562.147l.007.016a1.124 1.124 0 0 0 .562-2.099Zm16.406 28.454a1.123 1.123 0 0 0-2.246 0v5.602l-4.85-2.8a1.124 1.124 0 1 0-1.123 1.95l4.84 2.795-4.84 2.79a1.123 1.123 0 0 0 .562 2.099c.196.002.39-.05.561-.147l6.38-3.68c.038-.014.071-.036.105-.058l.02-.013a.652.652 0 0 1 .024-.015l.005-.002v-.001l.003-.002c.121-.072.223-.162.31-.272.01-.014.02-.028.028-.043l.01-.014a.386.386 0 0 1 .011-.017l.004-.007.01-.014a.785.785 0 0 0 .02-.03.027.027 0 0 1 .008-.01v-.002a.083.083 0 0 0 .006-.006l.001-.003.001-.002a1.11 1.11 0 0 0 .121-.366l.005-.027a.854.854 0 0 0 .01-.064c0-.012.003-.023.007-.034.003-.013.007-.025.007-.04v-7.567ZM33.63 55.974l4.795-2.779a1.121 1.121 0 0 1 1.44.666c.164.438.037.932-.317 1.237l-6.472 3.753c-.024.015-.05.024-.076.033l-.036.013-.042.018-.007.003a1.12 1.12 0 0 1-.4.082h-.008a1.157 1.157 0 0 1-.471-.112.512.512 0 0 0-.034-.012.287.287 0 0 1-.056-.025l-6.55-3.753a1.125 1.125 0 1 1 1.123-1.95l4.865 2.818v-5.619a1.123 1.123 0 1 1 2.246-.003v5.63Zm4.826-28.737-5.949 3.45-5.973-3.45a1.125 1.125 0 0 0-1.123 1.951l5.973 3.451v6.896c0 .62.503 1.122 1.123 1.122v-.039c.62 0 1.123-.503 1.123-1.123v-6.864l5.95-3.45a1.124 1.124 0 0 0-1.123-1.943Zm9.888-3.292a1.123 1.123 0 0 1-.562-2.099l4.839-2.797-4.846-2.805a1.125 1.125 0 0 1 1.123-1.95l6.526 3.776c.016.01.029.023.04.036h.001l.03.028a.78.78 0 0 1 .085.065l.013.012a1.042 1.042 0 0 1 .21.242c.005.008.011.013.017.02.006.005.012.01.017.018.005.01.008.02.01.03a.139.139 0 0 0 .009.026.993.993 0 0 1 .1.302.94.94 0 0 1 .018.14c0 .01.003.018.006.027.003.01.006.019.006.03v7.536a1.123 1.123 0 1 1-2.247 0v-5.58l-4.834 2.795c-.17.097-.365.148-.561.148Zm-31.128-2.137-4.83-2.79 4.822-2.758a1.125 1.125 0 1 0-1.123-1.95l-6.392 3.687a1.124 1.124 0 0 0-.365.256l-.002.003a1.464 1.464 0 0 1-.054.054.646.646 0 0 0-.12.143.301.301 0 0 0-.025.073.536.536 0 0 1-.017.057c-.008.017-.014.034-.021.052l-.003.008a1.136 1.136 0 0 0-.055.174l-.002.01a1.52 1.52 0 0 0-.013.11l-.007.043c-.004.023-.008.045-.008.069 0 .004 0 .007.002.01l.002.01v7.513a1.123 1.123 0 1 0 2.246 0v-5.61l4.834 2.825c.17.098.365.149.562.149l.007-.04a1.123 1.123 0 0 0 .562-2.099ZM12.363 44.93l4.844 2.803a1.123 1.123 0 0 1-.562 2.1c-.196 0-.39-.05-.561-.149l-6.526-3.776a.358.358 0 0 1-.079-.067.547.547 0 0 0-.047-.045l-.024-.02a.696.696 0 0 1-.111-.099.995.995 0 0 1-.151-.22l-.005-.01a1.09 1.09 0 0 1-.063-.129 1.133 1.133 0 0 1-.059-.289.175.175 0 0 0-.007-.034.123.123 0 0 1-.008-.038l-.002-.01a.034.034 0 0 1-.002-.01c0-.006 0-.01.002-.015a.076.076 0 0 0 .002-.016v-.103a.07.07 0 0 1 0-.013v-7.403a1.123 1.123 0 1 1 2.246-.003v5.596l4.826-2.799a1.125 1.125 0 1 1 1.123 1.95l-4.836 2.8Z" fill="currentColor"/><path opacity=".197" fill-rule="evenodd" clip-rule="evenodd" d="m33.145 33.104 20.443 11.831-20.443 11.852V33.104Zm-1.279-.014v23.688L11.404 44.932 31.866 33.09Zm0-2.206-20.46-11.839L31.865 7.23v23.655Zm1.28-.01V7.233l20.437 11.811-20.438 11.828Zm21.083 12.95L33.773 31.988 54.23 20.15v23.675Zm-43.447-23.66 20.434 11.825-20.434 11.825v-23.65Zm44.698-1.26-.005-.024a.627.627 0 0 0-.378-.429L32.825 5.571c-.01-.007-.025-.006-.036-.012a.622.622 0 0 0-.228-.062c-.02-.002-.036-.01-.056-.01-.007 0-.014.003-.023.003a.727.727 0 0 0-.14.025l-.023.008c-.028.01-.056.014-.082.026-.015.006-.029.006-.044.014L9.807 18.491c-.017.01-.024.03-.04.04-.015.01-.025.024-.039.036a.497.497 0 0 0-.07.074.641.641 0 0 0-.104.151l-.005.022c-.008.021-.01.044-.018.066-.009.035-.024.067-.028.102-.002.022-.015.04-.015.062 0 .028.011.051.014.077v25.754c-.002.02-.014.037-.014.057 0 .048.016.09.026.134.003.014.005.027.01.042.017.06.043.115.077.167.013.02.024.04.04.06a.603.603 0 0 0 .114.104c.02.015.031.035.052.047l22.38 12.96c.012.008.028.005.042.012a.629.629 0 0 0 .253.067c.008 0 .016.007.023.007h.008a.655.655 0 0 0 .32-.086l22.237-12.89a.629.629 0 0 0 .418-.497c.004-.024.011-.047.013-.07.001-.012.007-.022.007-.033V19.044c0-.05-.018-.094-.028-.14Z" fill="currentColor"/></svg>
